X:339
T:Scholion of Seikilos
Z:Jack Campin, http://www.campin.me.uk/
F:Jack Campin's Nine-Note Tunebook
% last edit 03-02-2013
N:ancient Greek
M:6/8
L:1/8
Q:3/8=44
N:accompaniment by JC
V:1
V:2 transpose -12
K:GMix
[V:1] Gd2 d3   |(Bcd) c3 |B2c d(cB)|BG2 (AF2)   |
[V:2] GG2 G3   |(GFG) F3 |G2F G(FG)|GD2 (FC2)   |
%
[V:1] GBd c(Bc)|BG2 (AF2)|GBA cdB  |GG2  G(ED) |]
[V:2] GGG F G2 |GD2 (FC2)|DDD FDD  |DD2 [G3G,3]|]

